!!!OTL: 222. Sehnsucht nach dem Fruehlinge.
!!!COM: Hoffman v. Fallersleben
!!!ODT: 1822
!!!ARE: Europa, Mitteleuropa, Deutschland
!!!SCT: B0222
!!!TXL: @@DE
!!!YEM: Copyright 1995, estate of Helmut Schaffrath.
**kern	**text
*ICvox	*
*Ivox	*
*clefG2	*
*M3/4	*
*k[b-e-a-]	*
*E-:	*
!LO:TX:a:t=Langsam.	!
{8e-	O
8f	wie
=1	=1
4g	iſt
4g	es
8g	kalt
8a-	ge-
=2	=2
4g	-wor-
4f}	-den
{8f	und
8g	ſo
=3	=3
4.a-	trau-
8cc	-rig
8b-	öd'
8a-	und
=4	=4
2g}	leer!
{8b-/	Rau-
8a-	-he
=5	=5
4f	Win-
4f	-de
8g	wehn
8a-	von
=6	=6
4cc	Nor-
4b-}	-den
{8ee-	und
8cc	die
=7	=7
4b-	Son-
4g	-ne
8b-/	ſcheint
8a-	nicht
=8	=8
2g}	mehr.
==	==
!!!AGN: Jahreszeiten - Lied, Winter
!!!GTL: Jahreszeitenlieder
!!!ONB: ESAC (Essen Associative Code) Database: BOEHME
!!!AMT: simple triple
!!!AIN: vox
!!!EED: Helmut Schaffrath
!!!EEV: 1.0
!!Mel. von Hoffmann v. Fallersleben. 1822  ’u: Uffen Berg do mֳ¶chti ruaihn.
!!@@COMMENT:"Hoffmann von Fallersleben 1835."
!!@@END:
!!!Text: H. von Fallersleben
!!!URL-scan: https://archive.org/details/BoehmeVtLieder1895/page/n201/mode/2up
!!!ENC: Anna Maria Matuszewska
!!!EEV: 2024/24/06
*-	*-
